X: 6
T: Garrett Barry's
R: jig
M: 6/8
L: 1/8
K: Ddor
DCD G3|AGA c2A|dcA d2f|fed cAG|~F3G3|AGA cde|dcA GEA|1D>ED A,3|2D>ED D3||dcA d2e|f/g/ag f2e|dcA c2d|egc ecA|dcA d2e|1f/g/ag f2e|dcA GEA|D>ED D3||2fdA Gce|dcA GEA|D>ED A3,|


Tune 544	Setting 13505

